X:1
T:Carol of the Bells
T:Carol of the Bells
T:Flute and Percussion
L:1/8
Q:1/4=180
M:3/4
K:Bb
V:1 treble nm="Flute" snm="Fl."
V:1
 z/ z/ z z4 | z6 | z6 | z6 |[Q:1/4=180] B2 AB G2 | B2 AB G2 | B2 AB G2 | B2 AB G2 | B2 AB G2 | %9
 B2 AB G2 | B2 AB G2 | B2 AB G2 | d2 cd B2 | d2 cd B2 | d2 cd B2 | d2 cd B2 | g2 gg fe | d2 dd cB | %18
 c2 cc dc | B2 AB G2 | D=E _G=G AB | cd c2 B2 | D=E _G=G AB | cd c2 B2 | B2 AB G2 | B2 AB G2 | %26
 B2 AB G2 | B2 AB G2 | B2 AB G2 | B2 AB G2 | B2 AB G2 | B2 AB G2 | B2 AB G2 | B2 AB G2 | B2 AB G2 | %35
 B2 AB G2 | B2 AB G2 | B2 AB G2 | B2 AB G2 | B2 AB G2 | B2 AB G2 | B2 AB G2 | B2 AB G2 | B2 AB G2 | %44
 d2 cd B2 | d2 cd B2 | d2 cd B2 | d2 cd B2 | d2 cd B2 | g2 gg fe | d2 dd cB | c2 cc dc | B2 AB G2 | %53
 D=E _G=G AB | cd c2 B2 | D=E _G=G AB | cd c2 B2 |] %57

